teeny/outline/spreadsheet.svg

<svg width="15" height="15" viewBox="0 0 15 15" fill="none" xmlns="http://www.w3.org/2000/svg">
<path d="M4.5 6.99542H4V7.99542H4.5V6.99542ZM10.5 7.99542H11V6.99542H10.5V7.99542ZM4.5 10.5H4V11H4.5V10.5ZM10.5 10.5V11H11V10.5H10.5ZM4.5 3.99738H4V4.99738H4.5V3.99738ZM10.5 4.99738H11V3.99738H10.5V4.99738ZM13.5 3.5H14V3.29289L13.8536 3.14645L13.5 3.5ZM10.5 0.5L10.8536 0.146447L10.7071 0H10.5V0.5ZM4.5 7.99542H10.5V6.99542H4.5V7.99542ZM4.5 11H10.5V10H4.5V11ZM4.5 4.99738H10.5V3.99738H4.5V4.99738ZM12.5 14H2.5V15H12.5V14ZM2 13.5V1.5H1V13.5H2ZM13 3.5V13.5H14V3.5H13ZM2.5 1H10.5V0H2.5V1ZM10.1464 0.853553L13.1464 3.85355L13.8536 3.14645L10.8536 0.146447L10.1464 0.853553ZM2.5 14C2.22386 14 2 13.7761 2 13.5H1C1 14.3284 1.67157 15 2.5 15V14ZM12.5 15C13.3284 15 14 14.3284 14 13.5H13C13 13.7761 12.7761 14 12.5 14V15ZM2 1.5C2 1.22386 2.22386 1 2.5 1V0C1.67157 0 1 0.671574 1 1.5H2ZM4 4.5V10.5H5V4.5H4ZM7 4.5V10.5H8V4.5H7ZM10 4.5V10.5H11V4.5H10Z" fill="black"/>
</svg>

<svg viewBox="0 0 15 15" xmlns="http://www.w3.org/2000/svg"><path d="M4.5 6.99H4v1h.5v-1Zm6 1h.5v-1h-.5v1Zm-6 2.5H4v.5h.5v-.5Zm6 0v.5h.5v-.5h-.5Zm-6-6.51H4v1h.5v-1Zm6 1h.5v-1h-.5v1Zm3-1.5h.5v-.21l-.15-.15 -.36.35Zm-3-3l.35-.36 -.15-.15h-.21v.5Zm-6 7.49h6v-1h-6v1Zm0 3h6v-1h-6v1Zm0-6.01h6v-1h-6v1Zm8 9h-10v1h10v-1ZM2 13.46v-12H1v12h1Zm11-10v10h1v-10h-1ZM2.5.96h8v-1h-8v1Zm7.64-.15l3 2.99 .7-.71 -3-3.01 -.71.7ZM2.49 13.95c-.28 0-.5-.23-.5-.5h-1c0 .82.67 1.5 1.5 1.5v-1Zm10 1c.82 0 1.5-.68 1.5-1.5h-1c0 .27-.23.5-.5.5v1ZM1.99 1.45c0-.28.22-.5.5-.5v-1c-.83 0-1.5.67-1.5 1.5h1Zm2 3v6h1v-6h-1Zm3 0v6h1v-6h-1Zm3 0v6h1v-6h-1Z"/></svg>
